X:1
T:Gravel Walk
R:reel
M:4/4
L:1/8
K:Ador
A2 eA BAeA | A2 ed BAGB | A2eA Bd ef | gedc BAGB :|
A2aA gAfA | A2ed BAGB | A2aA gAfa | gedc BAGB |
A2aA gAfA | A2ed BAGB | ABcd egfa | gedc BAGB |:
cAAG A3B | cAAG BGBd | cAAG A2ef | gfge dBGB ::
c2gc acgc | c2gc BAGB | c2gc acga | gedc BAGB |
c2gc acgc | c2gc BAGB | ABcd egfa | gedc BAGB :|

